src/assets/svg/wishlist.svg

<svg width="47" height="46" viewBox="0 0 47 46" fill="none" xmlns="http://www.w3.org/2000/svg">
<path d="M32.2421 0.000374445C30.7616 0.0467603 29.3281 0.313072 27.9393 0.799695H27.8007C27.7067 0.845694 27.6362 0.896536 27.5892 0.942535C27.0698 1.11443 26.5787 1.30811 26.1087 1.57442L25.2157 1.98599C24.8632 2.17967 24.4402 2.5404 24.2052 2.68808C23.9702 2.83092 23.7117 2.97861 23.5002 3.14566C20.8894 1.09022 17.7193 -0.0234491 14.4528 0.000374445C12.97 0.000374445 11.4895 0.216231 10.0818 0.702855C1.40809 3.60807 -1.71738 13.4132 0.893444 21.9836C2.37393 26.3632 4.7944 30.3603 7.96452 33.6262C12.5023 38.1535 17.4819 42.1724 22.8422 45.6344L23.4297 46L24.0407 45.6102C29.4198 42.1724 34.4276 38.1535 39.0077 33.602C42.1567 30.3361 44.5795 26.3632 46.0835 21.9836C48.7389 13.4132 45.6135 3.60807 36.8457 0.652013C36.1642 0.409912 35.4616 0.240441 34.7566 0.146022H34.4746C33.8142 0.0467602 33.1586 0.000374445 32.5006 0.000374445H32.2421ZM11.3038 7.65116C12.2673 7.3098 13.3248 7.84484 13.6773 8.86167C14.0063 9.87849 13.4893 10.9922 12.5023 11.3529C10.996 11.9339 9.98785 13.4616 9.98785 15.1539V15.2289C10.0325 15.7833 9.87035 16.3184 9.54136 16.73C9.21236 17.1415 8.71886 17.3812 8.20187 17.4321C7.23838 17.4054 6.41589 16.6089 6.34539 15.5897V15.3016C6.27489 11.9097 8.27002 8.83746 11.3038 7.65116Z" fill="#141416" fill-opacity="0.7"/>
</svg>

<svg xmlns="http://www.w3.org/2000/svg" width="47" height="46" fill="none"><path fill="#141416" fill-opacity=".7" d="M32.242 0q-2.22.07-4.303.8h-.138a.8.8 0 0 0-.212.143 8 8 0 0 0-1.48.631l-.893.412c-.353.194-.776.554-1.01.702-.236.143-.494.29-.706.458C20.89 1.09 17.72-.024 14.453 0c-1.483 0-2.963.216-4.371.703-8.674 2.905-11.8 12.71-9.189 21.28 1.48 4.38 3.901 8.377 7.072 11.643a90.8 90.8 0 0 0 14.877 12.008l.588.366.61-.39a90 90 0 0 0 14.968-12.008c3.149-3.266 5.572-7.239 7.075-11.618 2.656-8.57-.47-18.376-9.237-21.332a10.4 10.4 0 0 0-2.09-.506h-.281C33.815.046 33.159 0 32.5 0zM11.304 7.651c.963-.341 2.02.194 2.373 1.21.33 1.017-.188 2.131-1.175 2.492-1.506.58-2.514 2.109-2.514 3.8v.076a2.12 2.12 0 0 1-.447 1.501 1.95 1.95 0 0 1-1.34.702c-.963-.027-1.785-.823-1.856-1.842v-.288c-.07-3.392 1.925-6.465 4.959-7.65"/></svg>
